img/logo.svg

<svg width="187" height="37" viewBox="0 0 187 37" fill="none" xmlns="http://www.w3.org/2000/svg">
<path d="M7.29 12.9999V2.91994H11.664V0.399938H0.36V2.91994H4.77V12.9999H7.29ZM23.6154 12.9999V10.4799H15.4434V7.97794H22.9854V5.45794H15.4434V2.91994H23.6154V0.399938H12.9234V12.9999H23.6154ZM27.5681 12.9999V10.4799L30.0701 7.97794H31.3301L33.8501 10.4799V12.9999H36.3521V9.23794L33.8501 6.71794L36.3521 4.19794V0.399938H33.8501V2.93794L31.3301 5.45794H30.0701L27.5681 2.93794V0.399938H25.0481V4.19794L27.5681 6.71794L25.0481 9.23794V12.9999H27.5681ZM40.4923 12.9999V7.97794H46.7743V12.9999H49.2763V0.399938H46.7743V5.45794H40.4923V0.399938H37.9723V12.9999H40.4923ZM53.588 10.4799V2.91994H59.87V10.4799H53.588ZM61.13 12.9999L62.372 11.7579V1.67794L61.13 0.399938H52.31L51.068 1.67794V11.7579L52.31 12.9999H61.13ZM66.5037 12.9999V5.43994L69.0057 2.91994H72.7857V12.9999H75.2877V0.399938H67.7457L63.9837 4.17994V12.9999H66.5037ZM79.6036 10.4799V2.91994H85.8856V10.4799H79.6036ZM87.1456 12.9999L88.3876 11.7579V1.67794L87.1456 0.399938H78.3256L77.0836 1.67794V11.7579L78.3256 12.9999H87.1456ZM92.6993 12.9999V2.91994H100.871V0.399938H90.1793V12.9999H92.6993ZM104.652 12.9999L110.934 4.59394V12.9999H113.436V0.399938H110.934L104.652 8.78794V0.399938H102.132V12.9999H104.652ZM117.748 6.71794V2.91994H124.03V6.71794H117.748ZM117.748 12.9999V11.7579L120.25 9.23794H124.03V12.9999H126.532V0.399938H116.47L115.228 1.67794V7.97794L116.47 9.23794L115.228 10.4799V12.9999H117.748ZM3.42 36.9999V28.5039L6.786 33.3459H8.892L12.186 28.5039V36.9999H14.706V24.3999H12.276L7.812 30.5019L3.42 24.3999H0.9V36.9999H3.42ZM18.8494 30.7179V29.4579L21.3514 26.9199H25.1314V30.7179H18.8494ZM18.8494 36.9999V33.2379H25.1314V36.9999H27.6334V24.3999H20.0914L16.3294 28.1979V36.9999H18.8494ZM44.5133 36.9999V24.3999H42.0113V34.4799H38.2313V24.3999H35.7113V34.4799H31.9493V24.3999H29.4293V36.9999H44.5133ZM48.8419 36.9999L55.1239 28.5939V36.9999H57.6259V24.3999H55.1239L48.8419 32.7879V24.3999H46.3219V36.9999H48.8419ZM61.9376 36.9999V31.9779H68.2196V36.9999H70.7216V24.3999H68.2196V29.4579H61.9376V24.3999H59.4176V36.9999H61.9376ZM75.0333 34.4799V26.9199H81.3153V34.4799H75.0333ZM82.5753 36.9999L83.8173 35.7579V25.6779L82.5753 24.3999H73.7553L72.5133 25.6779V35.7579L73.7553 36.9999H82.5753ZM95.671 36.9999L96.913 35.7579V33.2379H94.411V34.4799H88.129V26.9199H94.411V28.1799H96.913V25.6779L95.671 24.3999H86.851L85.609 25.6779V35.7579L86.851 36.9999H95.671ZM104.919 36.9999V26.9199H109.293V24.3999H97.9889V26.9199H102.399V36.9999H104.919ZM113.072 30.7179V26.9199H119.354V30.7179H113.072ZM113.072 36.9999V33.2379H120.614L121.856 31.9779V25.6779L120.614 24.3999H110.552V36.9999H113.072ZM125.992 34.4799V26.9199H132.274V34.4799H125.992ZM133.534 36.9999L134.776 35.7579V25.6779L133.534 24.3999H124.714L123.472 25.6779V35.7579L124.714 36.9999H133.534ZM147.26 36.9999V34.4799H139.088V31.9779H146.63V29.4579H139.088V26.9199H147.26V24.3999H136.568V36.9999H147.26ZM151.393 36.9999V31.9779H157.675V36.9999H160.177V24.3999H157.675V29.4579H151.393V24.3999H148.873V36.9999H151.393ZM164.488 36.9999L170.77 28.5939V36.9999H173.272V24.3999H170.77L164.488 32.7879V24.3999H161.968V36.9999H164.488ZM177.584 30.7179V26.9199H183.866V30.7179H177.584ZM177.584 36.9999V35.7579L180.086 33.2379H183.866V36.9999H186.368V24.3999H176.306L175.064 25.6779V31.9779L176.306 33.2379L175.064 34.4799V36.9999H177.584Z" fill="white"/>
</svg>

<svg width="187" height="37" fill="none" xmlns="http://www.w3.org/2000/svg"><path d="M7.29 13V2.92h4.374V.4H.36v2.52h4.41V13h2.52zm16.325 0v-2.52h-8.172V7.978h7.542v-2.52h-7.542V2.92h8.172V.4H12.923V13h10.692zm3.953 0v-2.52l2.502-2.502h1.26l2.52 2.502V13h2.502V9.238l-2.502-2.52 2.502-2.52V.4H33.85v2.538l-2.52 2.52h-1.26l-2.502-2.52V.4h-2.52v3.798l2.52 2.52-2.52 2.52V13h2.52zm12.924 0V7.978h6.282V13h2.502V.4h-2.502v5.058h-6.282V.4h-2.52V13h2.52zm13.096-2.52V2.92h6.282v7.56h-6.282zM61.13 13l1.242-1.242V1.678L61.13.4h-8.82l-1.242 1.278v10.08L52.31 13h8.82zm5.374 0V5.44l2.502-2.52h3.78V13h2.502V.4h-7.542l-3.762 3.78V13h2.52zm13.1-2.52V2.92h6.282v7.56h-6.282zM87.146 13l1.242-1.242V1.678L87.146.4h-8.82l-1.242 1.278v10.08L78.326 13h8.82zm5.553 0V2.92h8.172V.4H90.179V13h2.52zm11.953 0l6.282-8.406V13h2.502V.4h-2.502l-6.282 8.388V.4h-2.52V13h2.52zm13.096-6.282V2.92h6.282v3.798h-6.282zm0 6.282v-1.242l2.502-2.52h3.78V13h2.502V.4H116.47l-1.242 1.278v6.3l1.242 1.26-1.242 1.242V13h2.52zM3.42 37v-8.496l3.366 4.842h2.106l3.294-4.842V37h2.52V24.4h-2.43l-4.464 6.102L3.42 24.4H.9V37h2.52zm15.43-6.282v-1.26l2.501-2.538h3.78v3.798H18.85zm0 6.282v-3.762h6.281V37h2.502V24.4h-7.542l-3.762 3.798V37h2.52zm25.663 0V24.4h-2.502v10.08h-3.78V24.4h-2.52v10.08H31.95V24.4h-2.52V37h15.084zm4.329 0l6.282-8.406V37h2.502V24.4h-2.502l-6.282 8.388V24.4h-2.52V37h2.52zm13.096 0v-5.022h6.282V37h2.502V24.4H68.22v5.058h-6.282V24.4h-2.52V37h2.52zm13.095-2.52v-7.56h6.282v7.56h-6.282zM82.575 37l1.242-1.242v-10.08L82.575 24.4h-8.82l-1.242 1.278v10.08L73.755 37h8.82zm13.096 0l1.242-1.242v-2.52h-2.502v1.242h-6.282v-7.56h6.282v1.26h2.502v-2.502L95.671 24.4h-8.82l-1.242 1.278v10.08L86.851 37h8.82zm9.248 0V26.92h4.374V24.4H97.989v2.52h4.41V37h2.52zm8.153-6.282V26.92h6.282v3.798h-6.282zm0 6.282v-3.762h7.542l1.242-1.26v-6.3l-1.242-1.278h-10.062V37h2.52zm12.92-2.52v-7.56h6.282v7.56h-6.282zm7.542 2.52l1.242-1.242v-10.08l-1.242-1.278h-8.82l-1.242 1.278v10.08L124.714 37h8.82zm13.726 0v-2.52h-8.172v-2.502h7.542v-2.52h-7.542V26.92h8.172V24.4h-10.692V37h10.692zm4.133 0v-5.022h6.282V37h2.502V24.4h-2.502v5.058h-6.282V24.4h-2.52V37h2.52zm13.095 0l6.282-8.406V37h2.502V24.4h-2.502l-6.282 8.388V24.4h-2.52V37h2.52zm13.096-6.282V26.92h6.282v3.798h-6.282zm0 6.282v-1.242l2.502-2.52h3.78V37h2.502V24.4h-10.062l-1.242 1.278v6.3l1.242 1.26-1.242 1.242V37h2.52z" fill="#fff"/></svg>
